www/src/components/thumbprint-www/featured/svg/help.svg

<svg width="100" height="100" viewBox="0 0 100 100" fill="none" xmlns="http://www.w3.org/2000/svg">
<rect width="100" height="100" fill="white"/>
<path d="M75.9104 15.0149C64.1354 14.5553 14.6354 24.8179 8.11041 36.3825C-4.71459 59.1286 25.1354 78.3518 42.8354 80.6494C56.0354 82.4109 86.4104 73.6801 93.1604 61.4262C98.4104 52.0827 92.4104 15.6276 75.9104 15.0149Z" fill="#C7E5F2" fill-opacity="0.2"/>
<path d="M77.4862 46.4155H67.5112C60.7612 46.4155 55.2862 52.0063 55.2862 58.8991C55.2862 64.5665 58.9612 69.3914 64.0612 70.9232C65.1862 71.2295 66.3112 71.4593 67.5112 71.4593H71.7112H77.4862C77.5612 71.4593 77.7112 71.4593 77.7862 71.4593L82.8862 76.6671C82.9612 76.7437 83.0362 76.6671 83.0362 76.5906V70.1573C83.1112 70.1573 83.1862 70.0807 83.2612 70.0807C87.0862 68.3192 89.7112 64.4133 89.7112 59.8947V59.1289V58.9757C89.7112 52.0063 84.2362 46.4155 77.4862 46.4155Z" fill="#C7E5F2"/>
<path d="M56.0362 17.3893H41.1112C30.9862 17.3893 22.8112 25.7372 22.7362 35.9998V36.2295V37.3783C22.7362 44.1945 26.7112 50.0151 32.4112 52.619C32.4862 52.6956 32.6362 52.6956 32.7112 52.7722V60.5074C32.7112 61.3499 33.6862 61.8094 34.2862 61.1967L40.5862 54.7634C40.7362 54.7634 40.8862 54.7634 41.0362 54.7634H49.7362H56.0362C57.8362 54.7634 59.5612 54.4571 61.2112 53.9976C68.7862 51.7766 74.3362 44.654 74.3362 36.1529C74.3362 25.8138 66.1612 17.3893 56.0362 17.3893Z" fill="#6676E1"/>
<path d="M36.8362 38.7569C38.4102 38.7569 39.6862 37.4539 39.6862 35.8466C39.6862 34.2393 38.4102 32.9363 36.8362 32.9363C35.2622 32.9363 33.9862 34.2393 33.9862 35.8466C33.9862 37.4539 35.2622 38.7569 36.8362 38.7569Z" fill="#F3F8F9"/>
<path d="M48.5362 38.7569C50.1102 38.7569 51.3862 37.4539 51.3862 35.8466C51.3862 34.2393 50.1102 32.9363 48.5362 32.9363C46.9622 32.9363 45.6862 34.2393 45.6862 35.8466C45.6862 37.4539 46.9622 38.7569 48.5362 38.7569Z" fill="#F3F8F9"/>
<path d="M60.3112 38.7569C61.8852 38.7569 63.1612 37.4539 63.1612 35.8466C63.1612 34.2393 61.8852 32.9363 60.3112 32.9363C58.7372 32.9363 57.4612 34.2393 57.4612 35.8466C57.4612 37.4539 58.7372 38.7569 60.3112 38.7569Z" fill="#F3F8F9"/>
<path d="M40.5713 65.0151H34.501C30.3995 65.0151 27.1182 68.4697 27.0362 72.7879V72.8742V73.3924C27.0362 76.2424 28.6768 78.6606 30.9737 79.7833C31.0557 79.7833 31.0557 79.7833 31.1378 79.8697V83.9288C31.1378 84.0151 31.2198 84.0151 31.2198 84.0151L34.337 80.7333C34.419 80.7333 34.419 80.7333 34.501 80.7333H38.0284H40.5713C41.3096 80.7333 42.0479 80.647 42.7042 80.3879C45.8214 79.4379 48.0362 76.4151 48.0362 72.8742C48.0362 68.4697 44.6729 65.0151 40.5713 65.0151Z" fill="#FCCA53"/>
</svg>

<svg width="100" height="100" fill="none" xmlns="http://www.w3.org/2000/svg"><path fill="#fff" d="M0 0H100V100H0z"/><path d="M75.91 15.015c-11.775-.46-61.275 9.803-67.8 21.367C-4.715 59.13 25.135 78.352 42.835 80.65c13.2 1.762 43.575-6.969 50.325-19.223 5.25-9.343-.75-45.798-17.25-46.411z" fill="#C7E5F2" fill-opacity=".2"/><path d="M77.486 46.416h-9.975c-6.75 0-12.225 5.59-12.225 12.483 0 5.668 3.675 10.492 8.775 12.024 1.125.306 2.25.536 3.45.536H77.786l5.1 5.208c.075.077.15 0 .15-.076v-6.434c.075 0 .15-.076.225-.076 3.825-1.762 6.45-5.668 6.45-10.186v-.919c0-6.97-5.475-12.56-12.225-12.56z" fill="#C7E5F2"/><path d="M56.036 17.39H41.111c-10.125 0-18.3 8.347-18.375 18.61v1.378c0 6.816 3.975 12.637 9.675 15.241.075.077.225.077.3.153v7.735c0 .843.975 1.302 1.575.69l6.3-6.434h15.45c1.8 0 3.525-.306 5.175-.765 7.575-2.221 13.125-9.344 13.125-17.845 0-10.34-8.175-18.764-18.3-18.764z" fill="#6676E1"/><path d="M36.836 38.757c1.574 0 2.85-1.303 2.85-2.91 0-1.608-1.276-2.91-2.85-2.91s-2.85 1.302-2.85 2.91c0 1.607 1.276 2.91 2.85 2.91zm11.7 0c1.574 0 2.85-1.303 2.85-2.91 0-1.608-1.276-2.91-2.85-2.91s-2.85 1.302-2.85 2.91c0 1.607 1.276 2.91 2.85 2.91zm11.775 0c1.574 0 2.85-1.303 2.85-2.91 0-1.608-1.276-2.91-2.85-2.91s-2.85 1.302-2.85 2.91c0 1.607 1.276 2.91 2.85 2.91z" fill="#F3F8F9"/><path d="M40.571 65.015h-6.07c-4.101 0-7.383 3.455-7.465 7.773v.604c0 2.85 1.64 5.269 3.938 6.391.082 0 .082 0 .164.087v4.059c0 .086.082.086.082.086l3.117-3.282h6.234c.739 0 1.477-.086 2.133-.345 3.117-.95 5.332-3.973 5.332-7.514 0-4.404-3.363-7.859-7.465-7.859z" fill="#FCCA53"/></svg>
